X:1
T:'Allegro Vivace'
T:'Allegro Vivace'
T:from Concerto
T:N. Rimsky-Korsakoff
C:N. Rimsky-Korsakoff
%%score 1 { ( 2 6 7 8 ) | ( 3 4 5 9 ) }
L:1/8
M:4/4
K:Bb
V:1 bass nm="Trombone" snm="Tbn."
V:2 treble nm="Piano" snm="Pno."
V:6 treble 
V:7 treble 
V:8 treble 
V:3 bass 
V:4 bass 
V:5 bass 
V:9 bass 
V:1
!fff! z8 | z2 z2 z2 (3.B,,.D,.F, | (A,2 B,) z (.F,2 .D,2) | .C,.D, B,,2 z2 (3.D,.F,.B, | %4
 (3:2:2(!>!C2 B,) (3.F,.A,.B, (3:2:2(!>!E2 D) (3(A,B,D) | (!>!G4 F) z z2 | z8 | z8 | z8 | %9
 z2 z2 z2 z2 | z8 | z8 | z8 | z2 z2 z2 (3.B,,.D,.F, | (A,2 B,) z (.F,2 .D,2) | %15
 .C,.D, B,,2 z2 (3.B,,.D,.F, | (3:2:2(!>!G,2 F,) (3.D,.F,.B, (3:2:2(!>!C2 B,) (3(F,B,D) | %17
 (!>!E4 D) z z2 | (G,4 A,2) .B,2 | (F,C) B,4 z2 | (G,4 ^F,2) .G,2 | (3(A,CB,) F,4 z2 | %22
 (3.=E,.G,.B, (D4 C) z | (!>!G2 F) z (!>!D2 C) z | (3.=E,.G,.B, (D4 C) z | %25
 (!>!G2 F) z (!>!D2 C) z | (3.=E,.G,.B, !>!D4 (3.E,.G,.B, | !>!D2 (3.E,.G,.B, (!>!D2 C) z | %28
 (F6 C2) | (.=B,.D) C2 (.^G,._B,) A,2 | (C6 A,2) | (.^G,.B,) A,2 (.=E,.=G,) F,2 | %32
 (.^G,.B,) A,2 (.=E,.=G,) F,2 | (.=B,,.D,) C,2 (.^G,,._B,,) A,,2 | F,,4 z4 | z2 (._D2 .C2 .D2) | %36
 (E,6 F,2 | _G,2) (B,2 _A,2 B,2) | (C6 _DE | _D) z (.D2 .C2 .D2) | (E,6 F,2 | _G,2) (B,2 A,2 B,2) | %42
 (C6 _DE | _D) z (.B,2 .A,2 .B,2) | (C,6 _D,2 | E,2) (_G,2 F,2 G,2) | (B,,6 C,2) | A,,4 z4 | z8 | %49
 z2 z2 z2 (3.B,,.D,.F, | (A,2 B,) z (.F,2 .D,2) | .C,.D, B,,2 z2 (3.D,.F,.B, | %52
 (3:2:2(!>!C2 B,) (3.F,.A,.B, (3:2:2(!>!E2 D) (3(A,B,D) | (!>!G4 F) z z2 | z8 | z8 | z8 | z8 | z8 | %59
 z8 | z8 | z2 z2 z2 (3.B,,.D,.F, | (A,2 B,) z (.F,2 .D,2) | .C,.D, B,,2 z2 (3.B,,.D,.F, | %64
 (3:2:2(!>!G,2 F,) (3.D,.F,.B, (3:2:2(!>!C2 B,) (3(F,B,D) | (!>!E4 D) z z2 | (G,4 A,2) .B,2 | %67
 (F,C) B,4 z2 | (G,4 ^F,2) .G,2 | (3(A,CB,) F,4 z2 | (3.A,.C.E (!>!G4 F) z | %71
 (!>!^C2 D) z (!>!A,2 B,) z | (3.A,.C.E (!>!G4 F) z | (!>!^C2 D) z (!>!A,2 B,) z | %74
 (3.A,.C.E !>!G4 (3.A,.C.E | !>!G2 (3.A,.C.E (!>!G2 F) z | (B6 F2) | .=E.G F2 .^C._E D2 | (F6 D2) | %79
 .^C.E D2 .A,.=C B,2 | .^C.E D2 .A,.=C B,2 | .=E,.G, F,2 .^C,._E, D,2 | B,,4 z4 | z8 | z8 | z8 | %86
 z8 |] %87
V:2
!f!!f!!f!!f! (3[Bdfb]!p!!p!!p! [FBd][FBd] (3[FBd][FBd][FBd] (3[FBd][FBd][FBd] (3[FBd][FBd][FBd] | %1
 (3:2:1!/![FBd]3 (3:2:1!/![FBd]3 (3:2:1!/![FBd]3 (3:2:1!/![FBd]3 | %2
 (3:2:1!/![FBd]3 (3:2:1!/![FBd]3 (3:2:1!/![FBd]3 (3:2:1!/![FBd]3 | %3
 (3:2:1!/![FBd]3 (3:2:1!/![FBd]3 (3:2:1!/![FBd]3 (3:2:1!/![FBd]3 | %4
!<(! (3:2:1!/![DFd]3 (3:2:1!/![DFd]3 (3:2:1!/![FB]3 (3:2:1!/![FB]3!<)! | %5
 (3:2:1!/![Bd]3 (3:2:1!/![Bd]3 (3:2:1!/![FBd]3 (3:2:1!/![FBd]3 |!f!!f!!f! [cac']6 [Aea]2 | %7
 [=B=b][dd'] [cc']2 [^G^g][_B_b] [Aa]2 | [cec']6 [Aea]2 | [^G^g][Bb] [Aa]2 [=E=e][=G=g] [Ff]2 | %10
 (3:2:1!/![Acf]3 (3:2:1!/![Acf]3 (3:2:1!/![Aega]3 (3:2:1!/![Aega]3 | %11
 (3:2:1!/![efc']3 (3:2:1!/![efc']3 (3:2:1!/![eae']3 (3:2:1!/![eae']3 | %12
 (3[Bdfb]!p!!p!!p! [FBd][FBd] (3[FBd][FBd][FBd] (3[FBd][FBd][FBd] (3[FBd][FBd][FBd] | %13
 (3:2:1!/![FBd]3 (3:2:1!/![FBd]3 (3:2:1!/![FBd]3 (3:2:1!/![FBd]3 | %14
 (3:2:1!/![FBd]3 (3:2:1!/![FBd]3 (3:2:1!/![FBd]3 (3:2:1!/![FBd]3 | %15
 (3:2:1!/![FBd]3 (3:2:1!/![FBd]3 (3:2:1!/![FBd]3 (3:2:1!/![FBd]3 | %16
!<(! (3:2:1!/![D_Ad]3 (3:2:1!/![DAd]3 (3:2:1!/![DAd]3 (3:2:1!/![DAd]3!<)! | %17
 (3:2:1!/![F_Af]3 (3:2:1!/![FAf]3 (3:2:1!/![FAf]3 (3:2:1!/![DAB]3 | %18
 (3[EGB][B,EG][B,EG] (3:2:1!/![B,EG]3 (3:2:1!/![B,EG]3 (3:2:1!/![B,EG]3 | %19
 (3:2:1!/![DFB]3 (3:2:1!/![DFB]3 (3:2:1!/![B,FB]3 (3:2:1!/![B,FB]3 | %20
 (3:2:1!/![B,EG]3 (3:2:1!/![B,EG]3 (3:2:1!/![B,EG]3 (3:2:1!/![B,EG]3 | %21
 (3:2:1!/![B,EG]3 (3:2:1!/![B,EG]3 (3:2:1!/![FB]3 (3:2:1!/![FB]3 | %22
 (3:2:1!/![=EGB]3 (3:2:1!/![EGB]3 (3:2:1!/![EGB]3 (3:2:1!/![EGB]3 | %23
 [gc'g']2 [fc'f'] z [d^gd']2 [cac'] z | %24
 (3:2:1!/![=EGB]3 (3:2:1!/![EGB]3 (3:2:1!/![EGB]3 (3:2:1!/![EGB]3 | %25
 [gc'g']2 [fc'f'] z [d^gd']2 [cac'] z | [B=egb]8- | [Begb]8 | %28
 (3[cf][cf][cf][K:bass] z2!p! (3[A,,C,]!<(![A,,C,][A,,C,] z2 | %29
 (3[C,F,][C,F,][C,F,] z2 (3[F,A,][F,A,][F,A,] z2 | (3[A,C][A,C][A,C] z2 (3[F,A,][F,A,][F,A,] z2 | %31
[K:treble] (3[A,C][A,C][A,C] z2 (3[CF][CF][CF] z2 | %32
 (3[FA][FA][FA] z2 (3[Ac][Ac][Ac] (3:2:1!/![FA]3!<)! |!f! (3[cf][cf][cf] z2 (3[fa][fa][fa] z2 | %34
!>(! (3:2:1!/![fac']3 (3:2:1!/![cfa]3 (3:2:1!/![Acf]3 (3:2:1!/![FAc]3!>)! | %35
!p! [F_A_d] z [_DF]_A, [DF]A,[DF]A, | z B,EB, [B,E]B,[_DF]B, | z B,_GB, =G[CE]_GE | c6 _de | %39
 [_A_d]F[Ad]F [=Ad]F[Ad]F | z E[Be]E [B_d]F[Bd]F | z8 | z8 | [F_d][_DF][Fd][DF] [Fd][DF][Fd][DF] | %44
 z [CE][E_G][CE] GE[GB]F | z2 [_G_g]2 [Ff]2 [Gg]2 | z [B,E][E_G][B,E] [EG][B,E]C=E | %47
 (3:2:1!/![FA]3 (3:2:1!/!F3 (3:2:1!/!F3 (3:2:1!/!F3 | %48
!f! (3[Bdfb]!p! [FBd][FBd] (3[FBd][FBd][FBd] (3[FBd][FBd][FBd] (3[FBd][FBd][FBd] | %49
 (3:2:1!/![FBd]3 (3:2:1!/![FBd]3 (3:2:1!/![FBd]3 (3:2:1!/![FBd]3 | %50
 (3:2:1!/![FBd]3 (3:2:1!/![FBd]3 (3:2:1!/![FBd]3 (3:2:1!/![FBd]3 | %51
 (3:2:1!/![FBd]3 (3:2:1!/![FBd]3 (3:2:1!/![FBd]3 (3:2:1!/![FBd]3 | %52
 (3[Dd][Ff][Bb] (3:2:2[cc']2 [Bb] (3[Ff][Bb][dd'] (3:2:2[ee']2 [dd'] | %53
 (3[Aa][Bb][_d_d'] [=e=e']4 [ff'] z |!f! [eae']6 [cac']2 | [=B=b][dd'] [cc']2 [^G^g][_B_b] [Aa]2 | %56
 [cec']6 [Aea]2 | [^G^g][Bb] [Aa]2 [=E=e][=G=g] [Ff]2 | %58
 (3:2:1!/![Acf]3 (3:2:1!/![Acf]3 (3:2:1!/![Aega]3 (3:2:1!/![Aega]3 | %59
 (3:2:1!/![efc']3 (3:2:1!/![efc']3 (3:2:1!/![eae']3 (3:2:1!/![eae']3 | %60
 (3[Bdfb]!p! [FBd][FBd] (3[FBd][FBd][FBd] (3[FBd][FBd][FBd] (3[FBd][FBd][FBd] | %61
 (3:2:1!/![FBd]3 (3:2:1!/![FBd]3 (3:2:1!/![FBd]3 (3:2:1!/![FBd]3 | %62
 (3:2:1!/![FBd]3 (3:2:1!/![FBd]3 (3:2:1!/![FBd]3 (3:2:1!/![FBd]3 | %63
 (3:2:1!/![FBd]3 (3:2:1!/![FBd]3 (3:2:1!/![FBd]3 (3:2:1!/![FBd]3 | %64
 (3B[Dd][Ff] (3:2:2[Gg]2 [Ff] (3d[Ff][Bb] (3:2:2[cc']2 [Bb] | (3f[_A_a][cc'] [gg']4 [ff'] z | %66
 (3[EGB]!p![B,GB][B,GB] (3:2:1!/![B,GB]3 (3:2:1!/![B,GB]3 (3:2:1!/![B,GB]3 | %67
 (3:2:1!/![B,GB]3 (3:2:1!/![B,GB]3!f!!f! [Ff][cc'] [Bb]2 | %68
 (3[B,GB][B,GB][B,GB] (3:2:1!/![B,GB]3 (3:2:1!/![B,GB]3 (3:2:1!/![B,GB]3 | %69
 (3:2:1!/![B,FB]3 (3:2:1!/![B,FB]3 (3[Aa][cc'][Bb] [Ff] z | %70
 (3:2:1!/![CEA]3 (3:2:1!/![CEA]3 z2 (3a[cc'][ee'] | [gg']2 [ff'] z [cfc']2 [Bfb] z | %72
 (3:2:1!/![CEA]3 (3:2:1!/![CEA]3 z2 (3a[cc'][ee'] | [gg']2 [ff'] z [cfc']2 [Bfb] z | %74
 (3[CEA][C,E,A,][C,E,A,] (3a[cc'][ee'] [gg']4 | (3a[cc'][ee'] [gg']4 (3a[cc'][ee'] | %76
!f! (3[dbd'][dfb][dfb] (3:2:1!/![DFB]3[K:bass] (3:2:1!/![D,F,]3 z2 | %77
 (3:2:1!/![F,B,]3 z2 (3:2:1!/![B,D]3 z2 |[K:treble] (3:2:1!/![DF]3 z2 (3:2:1!/![B,D]3 z2 | %79
 (3:2:1!/![DF]3 z2 (3:2:1!/![FB]3 z2 | %80
 (3[Bd][Bd][Bd] (3[DFB][DFB][DFB] (3[df][df][df] (3[FBd][FBd][FBd] | %81
 (3:2:1!/![fb]3 (3:2:1!/![Bdf]3 (3:2:1!/![bd']3 (3:2:1!/![dfb]3 | %82
!fff! (3:2:1!/![Bdf]3 (3:2:1!/![Bdf]3 (3:2:1!/![Bdf]3 (3:2:1!/![Bdf]3 | [bd'f'b']2 z2 [Bdfb]2 z2 | %84
 [B,B]8- | [B,B]8- | [B,B]8 |] %87
V:3
!f!!f! [B,,,B,,] z z2 z4 | z8 | z8 | z8 | [D,F,]4 [F,B,]4 | [B,D]4- [B,D] z z2 | %6
!ped! (3z [F,A,E][F,A,E] (3:2:1!/![F,A,E]3 (3:2:1!/![F,A,E]3 (3:2:1!/![F,A,E]3 | %7
 (3:2:1!/![F,A,E]3 (3:2:1!/![F,A,E]3 (3:2:1!/![F,CE]3 (3:2:1!/![F,CE]3 | %8
!ped! (3z [F,CE][F,CE] (3:2:1!/![F,CE]3 (3:2:1!/![F,CE]3 (3:2:1!/![F,CE]3!ped-up! | %9
 (3:2:1!/![F,CE]3 (3:2:1!/![F,CE]3 (3:2:1!/![F,A,C]3 (3:2:1!/![F,A,C]3 | %10
 [D,D][F,F] [E,E]2 [=B,,=B,][D,D] [C,C]2 | [^G,,^G,][B,,B,] [A,,A,]2 [=E,,=E,][=G,,=G,] [F,,F,]2 | %12
 [B,,,B,,] z z2 z4 | z8 | z8 | z8 | [B,,D,]4 [D,F,]4 | [F,_A,]8 | [E,,E,] z z2 z4 | %19
 [D,,D,] z z2 z4 | [E,,E,] z z2 z4 | [D,,D,] z z2 z4 | [C,,C,]8 | C,8 | [C,,C,]8 | C,8 | %26
 (3z [G,B,=E][G,B,E] (3:2:1!/![G,B,E]3 (3:2:1!/![G,B,E]3 (3:2:1!/![G,B,E]3 | %27
 (3[G,B,=E][G,B,E][G,B,E] (3:2:1!/![G,B,E]3 (3:2:1!/![G,B,E]3 (3:2:1!/![G,B,E]3 | %28
!ped! F,,8-!ped-up! | F,,8 |!ped! F,,8-!ped-up! | F,,8 |!ped! F,,8-!ped-up! | F,,8[K:treble] | %34
[K:bass] [F,,F,]4 [E,,E,]4 | [_D,,_D,] z z2 F,,4 | (G,,6 F,,2 | [E,,E,]2) z2 z4 | %38
 [_A,,,_A,,]6 [_G,,_G,]2 | [F,,F,]8 | [_G,,_G,]4 [F,,F,]4 | %41
 [E,,E,]2 [_D,,_D,]2 [C,,C,]2 [B,,,B,,]2 | z [E,_G,][G,C][E,G,] [G,C][E,G,][G,C]G, | [B,,,B,,]8 | %44
 ([E,,E,]6 [_D,,_D,]2 | [C,,C,]4) z4 | [_G,,_G,]8 | %47
 (3F,F,F, (3:2:1!/!F,3 (3:2:1!/!F,3 (3:2:1!/!F,3 | [B,,,B,,] z z2 z4 | z8 | z8 | %51
 z2 z2 .[C,,C,].[D,,D,] [B,,,B,,]2 | %52
 (3:2:1!/![D,F,B,]3 (3:2:1!/![D,F,B,]3 (3:2:1!/![F,B,]3 (3:2:1!/![F,B,]3 | %53
 (3:2:1!/![B,_D]3 (3:2:1!/![B,D]3 (3:2:1!/![F,B,=D]3 (3:2:1!/![D,F,B,D]3 |!ped! [F,,F,]8!ped-up! | %55
 F,,8 |!ped! (3z [F,CE][F,CE] (3:2:1!/![F,CE]3 (3:2:1!/![F,CE]3 (3:2:1!/![F,CE]3!ped-up! | %57
 (3:2:1!/![F,CE]3 (3:2:1!/![F,CE]3 (3:2:1!/![F,A,C]3 (3:2:1!/![F,A,C]3 | %58
 [D,D][F,F] [E,E]2 [=B,,=B,][D,D] [C,C]2 | [^G,,^G,][B,,B,] [A,,A,]2 [=E,,=E,][=G,,=G,] [F,,F,]2 | %60
 [B,,,B,,] z z2 z4 | z8 | z8 | z2 z2 .[C,,C,].[D,,D,] [B,,,B,,]2 | %64
 (3:2:1!/![D,_A,B,]3 (3:2:1!/![D,A,B,]3 (3:2:1!/![F,A,D]3 (3:2:1!/![F,A,D]3 | %65
 (3[_A,CF][A,CF][A,CF][K:treble] (3:2:1!/![CF_A]3 (3:2:1!/![FAc]3 (3:2:1!/![FA_c]3 | %66
[K:bass] [E,,E,]8- | [E,,E,]4 (3[D,,D,][B,F][B,F] (3:2:1!/![B,F]3 | [E,,E,]8- | %69
 [E,,E,]2 [D,,D,] z (3[B,,F,B,][B,,F,B,][B,,F,B,] (3:2:1!/![B,,F,B,]3 | [F,,F,]8[K:treble] | %71
 (3:2:1!/![^C=EB]3 (3:2:1!/![DFB]3[K:bass] (3:2:1!/![D,F,D]3 (3:2:1!/![D,F,D]3 | %72
 [F,,F,]8[K:treble] | %73
 (3:2:1!/![^C=EB]3 (3:2:1!/![DFB]3[K:bass] (3:2:1!/![D,F,D]3 (3:2:1!/![D,F,D]3 | %74
!ped! [F,,F,]8[K:treble]!ped-up! | %75
 (3:2:1!/![CEA]3 (3:2:1!/![CEA]3 (3:2:1!/![CEA]3 (3:2:1!/![CEA]3 | %76
[K:bass]!ped! [B,,,-B,,]8!ped-up! | B,,,8 |!ped! [B,,,B,,]8-!ped-up! | [B,,,B,,]8 | %80
!ped! [B,,,B,,]8!ped-up! | [B,,,B,,]8 | [B,,,B,,]2 [B,,B,]2 [F,,F,]2 [D,,D,]2 | %83
 [B,,,B,,]2 z2 [B,,,B,,]2 z2 |!ped! [B,,,B,,]8-!ped-up! | [B,,,B,,]8- | [B,,,B,,]8!ped-up! |] %87
V:4
 x8 | x8 | x8 | x8 | x8 | x8 | [F,,-F,]8 | x8 | [F,,-F,]8 | x8 | x8 | x8 | x8 | x8 | x8 | x8 | x8 | %17
 x8 | x8 | x8 | x8 | x8 | x8 | %23
 (3[A,C][A,C][A,C] (3:2:1!/![A,C]3 (3:2:1!/![F,^G,=B,]3 (3:2:1!/![F,A,C]3 | x8 | %25
 (3[A,C][A,C][A,C] (3:2:1!/![A,C]3 (3:2:1!/![F,^G,=B,]3 (3:2:1!/![F,A,C]3 | [C,,C,]8- | [C,,C,]8 | %28
 z2 (3:2:1!/![CFA]3 z2 (3:2:1!/![F,,A,,]3 | z2 (3:2:1!/![A,,C,]3 z2 (3:2:1!/![C,F,]3 | %30
 z2 (3:2:1!/![F,A,]3 z2 (3:2:1!/![C,F,]3 | z2 (3:2:1!/![F,A,]3 z2 (3:2:1!/![A,C]3 | %32
 z2 (3:2:1!/![CF]3 z4 | z2[K:treble] (3:2:1!/![Ac]3 z2 (3:2:1!/![cf]3 |[K:bass] x8 | x8 | x8 | x8 | %38
 z E,[_A,C]E, [A,C]E, z2 | x8 | x8 | x8 | [A,,,A,,]8 | x8 | x8 | x8 | x8 | F,,2 z2 z4 | x8 | x8 | %50
 x8 | x8 | x8 | x8 | x8 | %55
 (3[F,A,E][F,A,E][F,A,E] (3:2:1!/![F,A,E]3 (3:2:1!/![F,CE]3 (3:2:1!/![F,CE]3 | [F,,-F,]8 | x8 | %58
 x8 | x8 | x8 | x8 | x8 | x8 | x8 | x2[K:treble] x6 |[K:bass] x8 | x8 | x8 | x8 | x4[K:treble] x4 | %71
 x4[K:bass] x4 | x4[K:treble] x4 | x4[K:bass] x4 | x2[K:treble] x6 | x8 |[K:bass] x8 | x8 | x8 | %79
 x8 | x8 | x8 | x8 | x8 | x8 | x8 | x8 |] %87
V:5
 x8 | x8 | x8 | x8 | x8 | x8 | x8 | F,,8 | x8 | F,,8 | x8 | x8 | x8 | x8 | x8 | x8 | x8 | x8 | x8 | %19
 x8 | x8 | x8 | x8 | x8 | x8 | x8 | x8 | x8 | x8 | x8 | x8 | x8 | x8 | x2[K:treble] x6 | %34
[K:bass] x8 | x8 | x8 | x8 | x8 | x8 | x8 | x8 | x8 | x8 | x8 | x8 | x8 | x8 | x8 | x8 | x8 | x8 | %52
 x8 | x8 | x8 | x8 | x8 | F,,8 | x8 | x8 | x8 | x8 | x8 | x8 | x8 | x2[K:treble] x6 |[K:bass] x8 | %67
 x8 | x8 | x8 | z2 z2[K:treble] (3[CEA][CEA][CEA] (3[CEA][CEA][CEA] | x4[K:bass] x4 | %72
 z2 z2[K:treble] (3[CEA][CEA][CEA] (3[CEA][CEA][CEA] | x4[K:bass] x4 | %74
 z2[K:treble] (3[CEA][CEA][CEA] (3[CEA][CEA][CEA] (3[CEA][CEA][CEA] | x8 |[K:bass] x8 | x8 | x8 | %79
 x8 | x8 | x8 | x8 | x8 | x8 | x8 | x8 |] %87
V:6
 x8 | x8 | x8 | x8 | x8 | x8 | x8 | x8 | x8 | x8 | x8 | x8 | x8 | x8 | x8 | x8 | x8 | x8 | x8 | %19
 x8 | x8 | x8 | x8 | x8 | x8 | x8 | x8 | x8 | [Aa]4[K:bass] F,4 | A,4 C4 | F4 C4 | %31
[K:treble] F4 A4 | c4 f4 | a4 c'4 | x8 | x8 | B,8 | z2 B2 _A2 B2 | x8 | x8 | B,8 | z z B2 A2 B2 | %42
 c6 _de | x8 | _G,8 | EB z [Be] z [Be] z [Be] | [B,B]6 c2 | x8 | x8 | x8 | x8 | x8 | x8 | x8 | x8 | %55
 x8 | x8 | x8 | x8 | x8 | x8 | x8 | x8 | x8 | x8 | x8 | x8 | x8 | x8 | x8 | x8 | x8 | x8 | x8 | %74
 x8 | x8 | z3 z[K:bass] B,4 | D4 F4 |[K:treble] x8 | x8 | x8 | x8 | x8 | x8 | x8 | x8 | x8 |] %87
V:7
 x8 | x8 | x8 | x8 | x8 | x8 | x8 | x8 | x8 | x8 | x8 | x8 | x8 | x8 | x8 | x8 | x8 | x8 | x8 | %19
 x8 | x8 | x8 | x8 | x8 | x8 | x8 | x8 | x8 | x2[K:bass] x6 | x8 | x8 |[K:treble] x8 | x8 | x8 | %34
 f'4 z4 | x8 | x8 | x8 | x8 | x8 | x8 | x8 | x8 | x8 | x8 | x8 | x8 | x8 | x8 | x8 | x8 | x8 | x8 | %53
 x8 | x8 | x8 | x8 | x8 | x8 | x8 | x8 | x8 | x8 | x8 | x8 | x8 | x8 | x8 | x8 | x8 | x8 | x8 | %72
 x8 | x8 | x8 | x8 | x4[K:bass] x4 | x8 |[K:treble] x8 | x8 | x8 | x8 | x8 | x8 | x8 | x8 | x8 |] %87
V:8
 x8 | x8 | x8 | x8 | x8 | x8 | x8 | x8 | x8 | x8 | x8 | x8 | x8 | x8 | x8 | x8 | x8 | x8 | x8 | %19
 x8 | x8 | x8 | x8 | x8 | x8 | x8 | x8 | x8 | x2[K:bass] x6 | x8 | x8 |[K:treble] x8 | x8 | x8 | %34
 x8 | x8 | x8 | x8 | _A6 B_G | x8 | x8 | z B,EB, _GE_D[B,E] | E8 | x8 | x8 | x8 | x8 | x8 | x8 | %49
 x8 | x8 | x8 | x8 | x8 | x8 | x8 | x8 | x8 | x8 | x8 | x8 | x8 | x8 | x8 | x8 | x8 | x8 | x8 | %68
 x8 | x8 | x8 | x8 | x8 | x8 | x8 | x8 | x4[K:bass] x4 | x8 |[K:treble] B4 F4 | B4 d4 | f4 b4 | %81
 d'4 f'4 | b'8 | x8 | x8 | x8 | x8 |] %87
V:9
 x8 | x8 | x8 | x8 | x8 | x8 | x8 | x8 | x8 | x8 | x8 | x8 | x8 | x8 | x8 | x8 | x8 | x8 | x8 | %19
 x8 | x8 | x8 | x8 | x8 | x8 | x8 | x8 | x8 | x8 | x8 | x8 | x8 | x8 | x2[K:treble] x6 | %34
[K:bass] x8 | x8 | x8 | x8 | x8 | x8 | x8 | x8 | x8 | x8 | x8 | x8 | x8 | x8 | x8 | x8 | x8 | x8 | %52
 x8 | x8 | (3z [F,A,E][F,A,E] (3:2:1!/![F,A,E]3 (3:2:1!/![F,A,E]3 (3:2:1!/![F,A,E]3 | z8 | z8 | %57
 x8 | x8 | x8 | x8 | x8 | x8 | x8 | x8 | x2[K:treble] x6 |[K:bass] x8 | x8 | x8 | x8 | %70
 x4[K:treble] x4 | x4[K:bass] x4 | x4[K:treble] x4 | x4[K:bass] x4 | x2[K:treble] x6 | x8 | %76
[K:bass] z2 z2 z2 (3[B,,D,]-[B,,D,]-[B,,D,] | z2 (3:2:1!/![D,F,]3 z2 (3:2:1!/![F,B,]3 | %78
 z2 (3:2:1!/![B,D]3 z2 (3:2:1!/![F,B,]3 | z2 (3:2:1!/![B,D]3 z2 (3:2:1!/![DF]3 | x8 | x8 | x8 | %83
 x8 | x8 | x8 | x8 |] %87

